resources/img/scalable/actions/flypie-muffin-symbolic.svg

<?xml version="1.0" encoding="UTF-8" standalone="no"?>
<svg
   xmlns:dc="http://purl.org/dc/elements/1.1/"
   xmlns:cc="http://creativecommons.org/ns#"
   xmlns:rdf="http://www.w3.org/1999/02/22-rdf-syntax-ns#"
   xmlns:svg="http://www.w3.org/2000/svg"
   xmlns="http://www.w3.org/2000/svg"
   xmlns:sodipodi="http://sodipodi.sourceforge.net/DTD/sodipodi-0.dtd"
   xmlns:inkscape="http://www.inkscape.org/namespaces/inkscape"
   width="4.2333mm"
   height="4.2333mm"
   version="1.1"
   viewBox="0 0 4.2333 4.2333"
   id="svg14"
   sodipodi:docname="flypie-muffin-symbolic.svg"
   inkscape:version="1.0.2 (e86c870879, 2021-01-15)">
  <defs
     id="defs18">
    <inkscape:path-effect
       effect="fillet_chamfer"
       id="path-effect981"
       is_visible="true"
       lpeversion="1"
       satellites_param="F,0,0,1,0,0.1,0,1 @ F,0,0,1,0,0.1,0,1 @ F,0,0,1,0,0.1,0,1 @ F,0,0,1,0,0.1,0,1 @ F,0,0,1,0,0.1,0,1 @ F,0,0,1,0,0.1,0,1"
       unit="px"
       method="auto"
       mode="F"
       radius="0.1"
       chamfer_steps="1"
       flexible="false"
       use_knot_distance="true"
       apply_no_radius="true"
       apply_with_radius="true"
       only_selected="false"
       hide_knots="false" />
    <inkscape:path-effect
       effect="fillet_chamfer"
       id="path-effect975"
       is_visible="true"
       lpeversion="1"
       satellites_param="F,0,0,1,0,0.1,0,1 @ F,0,0,1,0,0.1,0,1 @ F,0,0,1,0,0.1,0,1 @ F,0,0,1,0,0.1,0,1 @ F,0,0,1,0,0.1,0,1 @ F,0,0,1,0,0.1,0,1"
       unit="px"
       method="auto"
       mode="F"
       radius="0.1"
       chamfer_steps="1"
       flexible="false"
       use_knot_distance="true"
       apply_no_radius="true"
       apply_with_radius="true"
       only_selected="false"
       hide_knots="false" />
    <inkscape:perspective
       sodipodi:type="inkscape:persp3d"
       inkscape:vp_x="-5.4065435 : 7.3003591 : 1"
       inkscape:vp_y="0 : 1000 : 0"
       inkscape:vp_z="11.931435 : 7.2381679 : 1"
       inkscape:persp3d-origin="2.11665 : 1.4111 : 1"
       id="perspective929" />
  </defs>
  <sodipodi:namedview
     pagecolor="#ffffff"
     bordercolor="#666666"
     borderopacity="1"
     objecttolerance="10"
     gridtolerance="10"
     guidetolerance="10"
     inkscape:pageopacity="0"
     inkscape:pageshadow="2"
     inkscape:window-width="1920"
     inkscape:window-height="1131"
     id="namedview16"
     showgrid="false"
     inkscape:zoom="42.747314"
     inkscape:cx="10.400793"
     inkscape:cy="7.1385214"
     inkscape:window-x="0"
     inkscape:window-y="32"
     inkscape:window-maximized="1"
     inkscape:current-layer="svg14"
     inkscape:document-rotation="0" />
  <metadata
     id="metadata2">
    <rdf:RDF>
      <cc:Work
         rdf:about="">
        <dc:format>image/svg+xml</dc:format>
        <dc:type
           rdf:resource="http://purl.org/dc/dcmitype/StillImage" />
        <dc:title></dc:title>
      </cc:Work>
    </rdf:RDF>
  </metadata>
  <path
     id="path1215"
     style="font-variation-settings:normal;opacity:1;vector-effect:none;fill:#2e3436;fill-opacity:1;stroke:none;stroke-width:0.264582px;stroke-linecap:butt;stroke-linejoin:miter;stroke-miterlimit:4;stroke-dasharray:none;stroke-dashoffset:0;stroke-opacity:1;stop-color:#000000;stop-opacity:1"
     d="M 2.1252613,0.35269498 C 1.4884624,0.38999963 0.99597665,0.69135379 0.84212995,1.2859179 c -0.0179418,0.069339 -0.0175214,0.087623 -0.069262,0.094879 -0.16058579,0.02252 -0.25474468,-0.00854 -0.42419898,0.2281911 -0.1694543,0.2367323 0.0128567,0.5667902 0.34052668,0.7750984 0.23790949,0.05621 0.39492065,-0.062776 0.55609035,-0.1985783 0.010319,-0.016699 0.021645,-0.030035 0.024822,-0.030026 0.00322,8.5e-6 0.01644,0.016759 0.029627,0.037633 0.1617243,0.2251149 0.3884122,0.1877915 0.5969263,0.1569393 0.1238407,-0.064736 0.1735,-0.1968601 0.2265998,-0.2962611 0.00548,-0.026105 0.012438,-0.047241 0.015613,-0.047241 0.0032,0 0.0081,0.016262 0.010809,0.036432 0.026144,0.1397584 0.142962,0.2241093 0.2302033,0.3066704 0.1233881,0.066588 0.2950313,0.067737 0.4231731,0.0028 0.053298,-0.027009 0.1403364,-0.1065083 0.1729525,-0.1581394 0.013518,-0.021395 0.027173,-0.038826 0.030427,-0.038834 0.00322,-9.4e-6 0.014281,0.013211 0.024422,0.029626 C 3.1390924,2.3401625 3.3027986,2.3695937 3.4500306,2.4004966 3.7904413,2.3620687 3.9400478,2.1882331 3.9592786,1.8880489 3.9785094,1.5878647 3.7285777,1.468749 3.494869,1.3808016 3.4642439,1.3761792 3.4635845,1.374842 3.4356167,1.2895211 3.1903491,0.68499594 2.7620602,0.31539033 2.1252613,0.35269498 Z M 1.7876391,1.2211856 C 1.8285908,1.3687999 1.5838288,1.5092226 1.4624119,1.5405934 1.340995,1.5719642 1.4264057,1.147156 1.5147896,1.0725798 1.6916857,1.0108206 1.7239004,1.129631 1.7876391,1.2211856 Z M 2.6664509,1.0743361 C 2.7668075,1.1618607 2.8806814,1.2418029 2.6898275,1.3616609 2.4989737,1.4815188 2.343267,1.1603733 2.3975383,1.0581616 c 0.054271,-0.10221166 0.1685561,-0.07135 0.2689126,0.016174 z M 2.2818207,2.6141242 c 0.0863,0.5528188 -0.1175967,1.1352891 -0.2417213,1.4481385 0.17745,0.049819 0.6629862,0.078416 0.7590039,-0.025889 0.1255278,-0.4821787 0.083486,-0.9620444 0.084048,-1.39903 2.31e-5,-0.014426 -0.00184,-0.014902 -0.026023,-0.0024 C 2.8428018,2.642354 2.7964908,2.656871 2.7542371,2.666972 2.6210369,2.698817 2.4411626,2.682741 2.3134483,2.627737 Z m -0.2870532,7.979e-4 -0.048442,0.020018 C 1.828717,2.6835377 1.6516048,2.6974247 1.5195488,2.6657661 1.4796394,2.6561982 1.434413,2.6422701 1.4194606,2.6345383 l -0.027224,-0.014412 0.0056,0.035231 c -0.037381,0.4239588 0.12796,0.9317876 0.085319,1.3160065 0.195863,0.094174 0.4704885,0.1482481 0.690968,0.084981 C 2.1334335,3.5880852 2.0353163,3.1034071 1.9967684,2.6381557 Z m -0.9009551,-0.08432 c -0.00121,-0.00122 -0.029617,0.00591 -0.063256,0.016014 -0.083776,0.025155 -0.30446225,0.02768 -0.38874285,0.0044 -0.030811,-0.00851 -0.057225,-0.014069 -0.058852,-0.012411 0.031583,0.4095877 0.066155,0.7257256 0.3038165,1.2478026 C 1.1199491,3.9798345 1.4118881,4.0446441 1.6710692,4.0235012 1.3248573,3.5266393 1.1839962,3.0558557 1.0938124,2.5306009 Z m 2.0882415,3.997e-4 C 3.1450249,2.6531985 2.8716433,3.8997936 2.7176213,3.9843935 2.8312695,4.1590602 3.2055045,3.9365734 3.3741134,3.8721424 3.5399497,3.4411823 3.6330277,3.3707939 3.6933052,2.538607 3.6912352,2.536537 3.6666642,2.541947 3.6384562,2.550618 3.5607422,2.574523 3.3302221,2.572503 3.2457097,2.547018 3.2120707,2.536876 3.1825937,2.529222 3.1820537,2.531004 Z"
     sodipodi:nodetypes="zsszccscccsccscscczcczczcczzzzcccccccccsccccccccccccccccscccscss" />
</svg>

<svg xmlns="http://www.w3.org/2000/svg" width="16" height="16" viewBox="0 0 4.233 4.233"><path style="font-variation-settings:normal;opacity:1;vector-effect:none;fill:#2e3436;fill-opacity:1;stroke:none;stroke-width:.264582px;stroke-linecap:butt;stroke-linejoin:miter;stroke-miterlimit:4;stroke-dasharray:none;stroke-dashoffset:0;stroke-opacity:1;stop-color:#000;stop-opacity:1" d="M2.125.353C1.488.39.996.69.842 1.286c-.018.07-.017.088-.07.095-.16.022-.254-.009-.423.228-.17.237.013.567.34.775.238.056.395-.063.556-.198.01-.017.022-.03.025-.03.003 0 .017.016.03.037.161.225.388.188.597.157.124-.065.173-.197.226-.296.006-.026.013-.047.016-.047.003 0 .008.016.01.036.027.14.144.224.23.307a.478.478 0 0 0 .424.002.576.576 0 0 0 .173-.158.14.14 0 0 1 .03-.039c.004 0 .015.014.025.03.108.155.272.185.419.215.34-.038.49-.212.51-.512.019-.3-.231-.42-.465-.507-.03-.005-.031-.006-.06-.091C3.19.685 2.763.315 2.126.353Zm-.337.868c.04.148-.204.288-.326.32-.121.031-.036-.394.053-.468.177-.062.209.057.273.148Zm.878-.147c.1.088.215.168.024.288-.191.12-.347-.202-.292-.304.054-.102.168-.071.268.016zm-.384 1.54c.086.553-.118 1.135-.242 1.448.178.05.663.079.76-.026.125-.482.083-.962.083-1.399 0-.014-.002-.015-.026-.002a.652.652 0 0 1-.103.032.767.767 0 0 1-.44-.04Zm-.287 0-.049.02a.768.768 0 0 1-.527 0l-.027-.014.006.035c-.038.424.128.932.085 1.316.196.095.47.149.691.085-.04-.468-.139-.953-.177-1.418Zm-.901-.083a1.05 1.05 0 0 1-.51.008c.03.41.065.725.303 1.247.233.194.525.259.784.238-.346-.497-.487-.968-.577-1.493Zm2.088 0c-.037.122-.31 1.369-.464 1.453.113.175.488-.047.656-.112.166-.43.259-.501.32-1.333a.186.186 0 0 0-.056.012 1.052 1.052 0 0 1-.392-.004.347.347 0 0 0-.064-.016Z"/></svg>
